X:524
T: WANN ZU MEIM SCHAETZEL KOMMST
N: E0510A
O: Europa, Mitteleuropa, Deutschland, Bayern, Regensburg
R: Liebes - Lied
M: 3/8
L: 1/16
K: G
 | G3FG2 | AGFED2 |
D3AA2 | ABG2z2 |
G3FG2 | AGFED2 |
D3AA2 | ABG2z2 |
A3BA2 | A3BA2 |
A3BA2 | A3BA2 |
G2F2E2 | D2d4 |
d2cBA2 | ABG2z2

@@@ Tune index: 4174
